X:0305
M:6/8
L:1/8
Q:3/8=120
K:G
c|BAB GAB|AGA D2D|G2G G2A|B3 d2
c|BAB GAB|AGA D2f|g2G G2A|B3 d2:|

